!!!OTL-incipit: HERMANN SCHLOG LAERMANN
!!!ARE: Europa, Mitteleuropa, Deutschland, Westfalen
!!!SCT: Z0032
!!!YEM: Copyright 1995, estate of Helmut Schaffrath.
**kern	**text
*ICvox	*
*M2/4	*
*k[f#]	*
*e:	*
=1	=1
!LO:TX:a:t=Weſtphäliſch.	!
{8.gL	Her-
16f#J	.
8e	-mann
8g	ſchlog
=2	=2
4a	Lär-
8g	-man,
16r}	.
{16g	ſchlog
=3	=3
8.gL	Pi-
16f#J	.
8e	-pen
8g	un
=4	=4
4a	Trummen,
8g}	.
{16aL	der
16bJ	.
=5	=5
8.cc/L	Kai-
16bJ	.
8a	-ſer
8g	is
=6	=6
4a	kum-
8g}	-men,
{8f#	mit
=7	=7
8.gL	Ham-
16f#J	.
8e	-mer
8f#	un
=8	=8
4e	Tan-
8e}	-gen,
{8f#	will
=9	=9
8.aL	Her-
16gJ	.
8f#	-mann
8e	up-
=10	=10
4d#	-han-
8e	-gen.
8r}	.
==	==
!!!Ag: Sagen - Lied, Romanze
!!!ONB: ESAC (Essen Associative Code) Database: ZUCCAL
!!!AMT: simple duple
!!!AIN: vox
!!!EED: Helmut Schaffrath
!!!EEV: 1.0
!!!GTL: I. Ernste Romanzen und Sagen.
!!!URL-scan: https://www.digitale-sammlungen.de/de/view/bsb11160571?page=68
!!!ENC: Anna Maria Matuszewska
!!!EEV: 2025/01/23
*-	*-
